icons/svelte.svg

<svg width="16" height="16" viewBox="0 0 16 16" fill="none" xmlns="http://www.w3.org/2000/svg">
<path d="M9.31331 3.36011H9.42331C9.77647 3.37458 10.1211 3.47281 10.4289 3.64668C10.7366 3.82054 10.9986 4.06508 11.1933 4.36011C11.4397 4.7005 11.5727 5.10987 11.5733 5.53011C11.5832 5.63988 11.5832 5.75033 11.5733 5.86011C11.5559 5.95154 11.5325 6.04173 11.5033 6.13011L11.4533 6.29011L11.3133 6.19011C10.9791 5.94795 10.6075 5.76216 10.2133 5.64011H10.1133V5.54011C10.1265 5.3853 10.0878 5.2305 10.0033 5.10011C9.94129 5.01152 9.85905 4.939 9.76339 4.88856C9.66774 4.83813 9.56144 4.81123 9.45331 4.81011H9.27331L9.10331 4.88011L6.30331 6.69011C6.22763 6.72636 6.16124 6.77946 6.10924 6.84532C6.05725 6.91119 6.02101 6.98808 6.00331 7.07011C5.97433 7.23381 6.01019 7.40237 6.10331 7.54011C6.16472 7.62929 6.24684 7.70226 6.34263 7.75277C6.43842 7.80328 6.54502 7.82981 6.65331 7.83011H6.83331L7.00331 7.73011L8.10331 7.05011C8.27983 6.93892 8.47194 6.85466 8.67331 6.80011C8.85269 6.75233 9.03767 6.72879 9.22331 6.73011C9.57395 6.7366 9.91807 6.82608 10.2275 6.99121C10.5369 7.15633 10.8027 7.39241 11.0033 7.68011C11.1644 7.90295 11.2792 8.15578 11.3411 8.4237C11.4029 8.69163 11.4104 8.96921 11.3633 9.24011C11.3163 9.50394 11.2147 9.75501 11.0648 9.97719C10.915 10.1994 10.7203 10.3877 10.4933 10.5301L7.69331 12.3101C7.51587 12.4196 7.32401 12.5037 7.12331 12.5601C6.9411 12.6119 6.75273 12.6388 6.56331 12.6401C6.20141 12.6344 5.84639 12.5403 5.52917 12.366C5.21196 12.1917 4.94217 11.9425 4.74331 11.6401C4.49885 11.3025 4.366 10.8969 4.36331 10.4801V10.4001C4.35391 10.2936 4.35391 10.1866 4.36331 10.0801L4.42331 9.82011V9.66011L4.56331 9.76011C4.89749 10.0023 5.26907 10.1881 5.66331 10.3101H5.76331V10.4101C5.77592 10.5986 5.86212 10.7746 6.00331 10.9001C6.06745 10.9889 6.15154 11.0614 6.2488 11.1117C6.34606 11.1621 6.45378 11.1889 6.56331 11.1901C6.61619 11.1999 6.67042 11.1999 6.72331 11.1901L6.90331 11.1201L9.66331 9.32011C9.73215 9.27889 9.79169 9.22383 9.83816 9.15842C9.88464 9.09302 9.91703 9.01868 9.93331 8.94011C9.96228 8.7764 9.92642 8.60784 9.83331 8.47011C9.77189 8.38092 9.68977 8.30795 9.59398 8.25744C9.4982 8.20694 9.39159 8.1804 9.28331 8.18011H9.10331L8.93331 8.25011L7.86331 9.00011C7.68848 9.11222 7.49567 9.1934 7.29331 9.24011C7.11392 9.28788 6.92894 9.31142 6.74331 9.31011C6.3797 9.30604 6.02267 9.21273 5.70358 9.03836C5.38449 8.86399 5.11311 8.61392 4.91331 8.31011C4.75697 8.08706 4.64643 7.83521 4.58807 7.56916C4.52971 7.3031 4.52469 7.02811 4.57331 6.76011C4.62027 6.49628 4.72194 6.2452 4.87177 6.02303C5.02161 5.80085 5.2163 5.61251 5.44331 5.47011L8.24331 3.69011C8.42155 3.57969 8.61308 3.49233 8.81331 3.43011C8.97746 3.39144 9.14484 3.368 9.31331 3.36011ZM9.29331 2.00011C8.63847 1.99493 7.99606 2.17897 7.44331 2.53011L4.64331 4.32011C4.26711 4.55643 3.94461 4.86896 3.69659 5.23755C3.44857 5.60614 3.28053 6.0226 3.20331 6.46011C3.0641 7.19993 3.18046 7.96511 3.53331 8.63011C3.2913 8.99222 3.1278 9.40099 3.05331 9.83011C2.97333 10.2771 2.98343 10.7356 3.08303 11.1786C3.18263 11.6217 3.36971 12.0403 3.63331 12.4101C3.97737 12.8998 4.43395 13.2999 4.96468 13.5765C5.49541 13.8532 6.08479 13.9985 6.68331 14.0001C7.33815 14.0053 7.98055 13.8212 8.53331 13.4701L11.3333 11.6901C11.711 11.4532 12.0345 11.1392 12.2827 10.7687C12.5308 10.3983 12.698 9.9796 12.7733 9.54011C12.9118 8.80352 12.7954 8.04174 12.4433 7.38011C12.6811 7.01578 12.8442 6.60791 12.9233 6.18011C13.0058 5.73158 12.997 5.27102 12.8973 4.82598C12.7977 4.38095 12.6092 3.96061 12.3433 3.59011C11.9992 3.10037 11.5427 2.70036 11.0119 2.42368C10.4812 2.14701 9.89182 2.00175 9.29331 2.00011Z" fill="#FF3E00"/>
</svg>

<svg xmlns="http://www.w3.org/2000/svg" width="16" height="16" fill="none"><path fill="#FF3E00" d="M9.313 3.36h.11a2.23 2.23 0 0 1 1.77 1 2 2 0 0 1 .38 1.17c.01.11.01.22 0 .33a2.13 2.13 0 0 1-.07.27l-.05.16-.14-.1a3.78 3.78 0 0 0-1.1-.55h-.1v-.1a.7.7 0 0 0-.11-.44.68.68 0 0 0-.55-.29h-.18l-.17.07-2.8 1.81a.55.55 0 0 0-.3.38.64.64 0 0 0 .34.683.67.67 0 0 0 .31.077h.18l.17-.1 1.1-.68a2.08 2.08 0 0 1 1.12-.32 2.22 2.22 0 0 1 1.78.95 2.061 2.061 0 0 1 .36 1.56 1.92 1.92 0 0 1-.87 1.29l-2.8 1.78c-.177.11-.369.194-.57.25a2.1 2.1 0 0 1-.56.08 2.22 2.22 0 0 1-1.82-1 2 2 0 0 1-.38-1.16v-.08a1.82 1.82 0 0 1 0-.32l.06-.26v-.16l.14.1c.334.242.706.428 1.1.55h.1v.1a.72.72 0 0 0 .24.49.699.699 0 0 0 .56.29c.053.01.107.01.16 0l.18-.07 2.76-1.8a.58.58 0 0 0 .27-.38.64.64 0 0 0-.339-.683.67.67 0 0 0-.31-.077h-.18l-.17.07-1.07.75a1.81 1.81 0 0 1-.57.24 2.08 2.08 0 0 1-.55.07 2.22 2.22 0 0 1-1.83-1 2.06 2.06 0 0 1-.34-1.55 1.92 1.92 0 0 1 .87-1.29l2.8-1.78c.178-.11.37-.198.57-.26a2.74 2.74 0 0 1 .5-.07ZM9.293 2a3.4 3.4 0 0 0-1.85.53l-2.8 1.79a3.18 3.18 0 0 0-1.44 2.14 3.32 3.32 0 0 0 .33 2.17 3.12 3.12 0 0 0-.48 1.2 3.41 3.41 0 0 0 .58 2.58A3.74 3.74 0 0 0 6.683 14a3.4 3.4 0 0 0 1.85-.53l2.8-1.78a3.17 3.17 0 0 0 1.44-2.15 3.3 3.3 0 0 0-.33-2.16c.238-.364.401-.772.48-1.2a3.39 3.39 0 0 0-.58-2.59A3.74 3.74 0 0 0 9.293 2Z"/></svg>
